cssgg/details-less.svg

<svg
  width="24"
  height="24"
  viewBox="0 0 24 24"
  fill="none"
  xmlns="http://www.w3.org/2000/svg"
>
  <path
    d="M3 9C2.44772 9 2 9.44772 2 10C2 10.5523 2.44772 11 3 11H21C21.5523 11 22 10.5523 22 10C22 9.44772 21.5523 9 21 9H3Z"
    fill="currentColor"
  />
  <path
    d="M3 13C2.44772 13 2 13.4477 2 14C2 14.5523 2.44772 15 3 15H15C15.5523 15 16 14.5523 16 14C16 13.4477 15.5523 13 15 13H3Z"
    fill="currentColor"
  />
</svg>

<svg viewBox="0 0 24 24" xmlns="http://www.w3.org/2000/svg"><g><path d="M3 9c-.56 0-1 .44-1 1 0 .55.44 1 1 1h18c.55 0 1-.45 1-1 0-.56-.45-1-1-1H3Z"/><path d="M3 13c-.56 0-1 .44-1 1 0 .55.44 1 1 1h12c.55 0 1-.45 1-1 0-.56-.45-1-1-1H3Z"/></g></svg>
